
bps (190/120)

do
  let mod p = id $ p
  harmor $     
    (|+| note "-3") $ 
    (|=| note "[0,14]") $ 
    note "{0/2 0/2 0/2 0/2 0/2 0/2}%8"
    # x (scale 0.35 0.65 $ slow 20 tri)
    # y (scale 0.35 0.65 $ slow 21 tri)
    # z (scale 0.4 1 $ slow 22 tri)
    # reverbdry (scale 0.5 0.51 $ slow 23 tri)
    # unit "cycle"
  rytm $ stack [
    midinote "{0 ~ ~ ~ ~ ~}%8",
    midinote "{~ ~ ~ ~ [~ 3] ~}%8" ]
      
  hush